packages/components/bolt-icons/src/svgs/product/industry/transportation.svg

<?xml version="1.0" encoding="UTF-8" standalone="no"?>
<svg width="32px" height="32px" viewBox="0 0 32 32" version="1.1" xmlns="http://www.w3.org/2000/svg" xmlns:xlink="http://www.w3.org/1999/xlink">
    <!-- Generator: Sketch 47.1 (45422) - http://www.bohemiancoding.com/sketch -->
    <title>Icon/Industry/Transportation</title>
    <desc>Created with Sketch.</desc>
    <defs></defs>
    <g id="Symbols" stroke="none" stroke-width="1" fill="none" fill-rule="evenodd">
        <g id="Icon/Industry/Transportation" fill="#1F2555">
            <path d="M12,5.999 L20,5.999 L20,3.998 L12,3.998 L12,5.999 Z M28,7.999 L4,7.999 L4,2.999 C4,2.447 4.448,1.999 5,1.999 L27,1.999 C27.553,1.999 28,2.447 28,2.999 L28,7.999 Z M28,18.998 L28,19.999 L27,19.999 L5,19.999 L4,19.999 L4,18.998 L4,9.999 L28,9.999 L28,18.998 Z M26,25.998 C24.896,25.998 24,25.104 24,24 C24,22.895 24.896,21.999 26,21.999 C27.105,21.999 28,22.895 28,24 C28,25.104 27.105,25.998 26,25.998 L26,25.998 Z M22.554,25.998 L9.446,25.998 C9.789,25.408 10,24.731 10,24 C10,23.268 9.789,22.59 9.445,21.999 L22.555,21.999 C22.211,22.59 22,23.268 22,24 C22,24.731 22.211,25.408 22.554,25.998 L22.554,25.998 Z M6,25.998 C4.896,25.998 4,25.104 4,24 C4,22.895 4.896,21.999 6,21.999 C7.105,21.999 8,22.895 8,24 C8,25.104 7.105,25.998 6,25.998 L6,25.998 Z M28,0 L4,0 C2.896,0 2,0.895 2,1.999 L2,7.999 L2,9.999 L2,19.999 L2,21.999 L2,24 C2,25.477 2.81,26.752 4,27.445 L4,30.998 C4,31.551 4.448,31.999 5,31.999 C5.553,31.999 6,31.551 6,30.998 L6,28 L26,28 L26,30.998 C26,31.551 26.448,31.999 27,31.999 C27.553,31.999 28,31.551 28,30.998 L28,27.445 C29.191,26.752 30,25.477 30,24 L30,21.999 L30,19.999 L30,9.999 L30,7.999 L30,1.999 C30,0.895 29.105,0 28,0 L28,0 Z" id="Page-1"></path>
        </g>
    </g>
</svg>

<svg id="b70e4e6e-7d25-4a38-8202-311c6361aeaf" data-name="Layer 1" xmlns="http://www.w3.org/2000/svg" viewBox="0 0 28 32"><title>transportation</title><path id="fa01f8bb-7b69-4742-a5e8-5e44d2c60476" data-name="Page-1" d="M12,6h8V4H12ZM28,8H4V3A.94.94,0,0,1,5,2H27a.94.94,0,0,1,1,1Zm0,11v1H4V10H28Zm-2,7a2,2,0,1,1,2-2,2,2,0,0,1-2,2Zm-3.4,0H9.4a4.66,4.66,0,0,0,.6-2,3.61,3.61,0,0,0-.6-2H22.5a4.66,4.66,0,0,0-.6,2,4.79,4.79,0,0,0,.7,2ZM6,26a2,2,0,1,1,2-2,2,2,0,0,1-2,2ZM28,0H4A2,2,0,0,0,2,2V24a3.76,3.76,0,0,0,2,3.4V31a.94.94,0,0,0,1,1,.94.94,0,0,0,1-1V28H26v3a1,1,0,0,0,2,0V27.4A4,4,0,0,0,30,24V2a2,2,0,0,0-2-2Z" transform="translate(-2)" fill="#1f2555" fill-rule="evenodd"/></svg>
